X:4075
L:1/8
Q:1/4=120
M:2/2
K:C
"^Moderatly Quick" (3G,A,B, | CDCC EEGE | F2 [FA]2 AAcA | GAGG BBdB | [Ec]2 [Ec]2 ee g2 | 
 CDCC EE G2 | [FA]2 [FA]2 AA c2 | GAGG BBdB | [Ec]2 [Ec]2- [Ec]2 || (e2 | g)age ccAe- | 
 eage c3 (c | d)ABB G2 BB | ddBB G2 (e2 | g)age ccAe- | eage c3 (c | d)dBB GBdB | 
 [Ec]2 [Ec]2- [Ec]2 ||

